src/lib/packages/icons/src/assets/line/airplay.svg

<svg width="24" height="24" viewBox="0 0 24 24" fill="none" xmlns="http://www.w3.org/2000/svg">
<path d="M18 18.75C17.586 18.75 17.25 18.414 17.25 18C17.25 17.586 17.586 17.25 18 17.25C19.577 17.25 20.25 16.577 20.25 15V7C20.25 5.423 19.577 4.75 18 4.75H6C4.423 4.75 3.75 5.423 3.75 7V15C3.75 16.577 4.423 17.25 6 17.25C6.414 17.25 6.75 17.586 6.75 18C6.75 18.414 6.414 18.75 6 18.75C3.582 18.75 2.25 17.418 2.25 15V7C2.25 4.582 3.582 3.25 6 3.25H18C20.418 3.25 21.75 4.582 21.75 7V15C21.75 17.418 20.418 18.75 18 18.75ZM16.562 20.78C16.862 20.179 16.798 19.472 16.395 18.936L13.3979 14.95C12.7299 14.06 11.269 14.061 10.601 14.95L7.604 18.937C7.201 19.473 7.13701 20.18 7.43701 20.781C7.73601 21.379 8.33605 21.751 9.00305 21.751H14.995C15.663 21.75 16.264 21.378 16.562 20.78ZM12.199 15.8511L15.196 19.8379C15.28 19.9489 15.247 20.0571 15.22 20.1101C15.194 20.1621 15.13 20.25 14.995 20.25H9.00305C8.86805 20.25 8.80495 20.1621 8.77795 20.1101C8.75195 20.0561 8.718 19.9489 8.802 19.8379L11.799 15.8511C11.8639 15.7641 11.952 15.751 11.998 15.751C12.044 15.751 12.134 15.7631 12.199 15.8511Z" fill="currentColor"/>
</svg>

<svg xmlns="http://www.w3.org/2000/svg" width="24" height="24" fill="none"><path fill="currentColor" d="M18 18.75a.75.75 0 0 1 0-1.5c1.577 0 2.25-.673 2.25-2.25V7c0-1.577-.673-2.25-2.25-2.25H6c-1.577 0-2.25.673-2.25 2.25v8c0 1.577.673 2.25 2.25 2.25a.75.75 0 0 1 0 1.5c-2.418 0-3.75-1.332-3.75-3.75V7c0-2.418 1.332-3.75 3.75-3.75h12c2.418 0 3.75 1.332 3.75 3.75v8c0 2.418-1.332 3.75-3.75 3.75Zm-1.438 2.03c.3-.601.236-1.308-.167-1.844l-2.997-3.986c-.668-.89-2.129-.889-2.797 0l-2.997 3.987a1.751 1.751 0 0 0-.167 1.844c.299.598.899.97 1.566.97h5.992a1.745 1.745 0 0 0 1.567-.971Zm-4.363-4.929 2.997 3.987c.084.11.051.22.024.272a.243.243 0 0 1-.225.14H9.003a.244.244 0 0 1-.225-.14.251.251 0 0 1 .024-.272l2.997-3.987a.244.244 0 0 1 .199-.1c.046 0 .136.012.201.1Z"/></svg>
